X: 41411
T: Twilight In Portroe
R: reel
M: 4/4
K: Amajor
|:A,2CE D2FD|E2GB A2Ac|dff2 edcA|B2cA BAFA|
A,2CE D2FD|E2GB A2Ac|dff2 edcA|1 BBAB cAA2:|2 BBAB cAAB||
|:c2ec fcec|A2Ac BAFA|E2EF Acec|defg a2ae|
c2ec fcec|A2Ac BAFA|E2EF Acec|1 dfed cAAB:|2 dfed cAA2||

